src/assets/icons/arrow-prev.svg

<svg width="40" height="40" viewBox="0 0 40 40" fill="none" xmlns="http://www.w3.org/2000/svg">
<g id="Arrow">
<circle id="Ellipse 102" cx="20" cy="20" r="20" transform="matrix(-1 0 0 1 40 0)" fill="#F4F5FA"/>
<path id="Union" opacity="0.6" fill-rule="evenodd" clip-rule="evenodd" d="M21.4879 6.67542C20.6651 5.85259 19.331 5.85258 18.5082 6.67542L9.56895 15.6146C8.74612 16.4375 8.74612 17.7716 9.56895 18.5944C10.3918 19.4172 11.7259 19.4172 12.5487 18.5944L21.4879 9.65516C22.3108 8.83233 22.3108 7.49825 21.4879 6.67542ZM21.4896 33.4918C22.3125 32.669 22.3125 31.3349 21.4896 30.5121L12.5504 21.5729C11.7276 20.75 10.3935 20.75 9.57065 21.5729C8.74782 22.3957 8.74782 23.7298 9.57065 24.5526L18.5099 33.4918C19.3327 34.3147 20.6668 34.3147 21.4896 33.4918ZM30.7212 17.9742C31.8848 17.9742 32.8282 18.9176 32.8282 20.0812C32.8282 21.2449 31.8848 22.1882 30.7212 22.1882L18.0792 22.1882C16.9155 22.1882 15.9722 21.2449 15.9722 20.0812C15.9722 18.9176 16.9155 17.9742 18.0792 17.9742L30.7212 17.9742Z" fill="#517185"/>
</g>
</svg>

<svg width="40" height="40" fill="none" xmlns="http://www.w3.org/2000/svg"><circle cx="20" cy="20" r="20" transform="matrix(-1 0 0 1 40 0)" fill="#F4F5FA"/><path opacity=".6" fill-rule="evenodd" clip-rule="evenodd" d="M21.488 6.675a2.107 2.107 0 0 0-2.98 0l-8.94 8.94a2.107 2.107 0 0 0 2.98 2.98l8.94-8.94a2.107 2.107 0 0 0 0-2.98zm.002 26.817a2.107 2.107 0 0 0 0-2.98l-8.94-8.94a2.107 2.107 0 1 0-2.98 2.98l8.94 8.94a2.107 2.107 0 0 0 2.98 0zm9.231-15.518a2.107 2.107 0 0 1 0 4.214H18.08a2.107 2.107 0 1 1 0-4.214h12.642z" fill="#517185"/></svg>
